tools/download-figma-icons/icons/outlined-medium/toothbrush.svg

<svg width="25" height="24" viewBox="0 0 25 24" fill="none" xmlns="http://www.w3.org/2000/svg">
<path fill-rule="evenodd" clip-rule="evenodd" d="M23.5716 4.76287C23.2491 4.36539 22.7991 4.12539 22.2891 4.0729C21.7791 4.0129 21.2841 4.17039 20.8942 4.48538L20.8417 4.52288L19.7992 3.36793C19.7992 3.36793 19.8667 3.35293 19.8967 3.35293H19.9117C20.2192 3.36793 20.4817 3.18043 20.6017 2.90294C20.7217 2.62546 20.6617 2.31047 20.4592 2.08548L19.2817 0.833029C18.7642 0.270552 18.0518 -0.0144366 17.3018 0.000562829C16.1619 0.0380613 14.9844 0.788031 13.8069 2.22797C13.387 2.73795 12.0145 4.0504 10.7321 4.0504H10.7171C10.4246 4.0654 10.1471 4.22289 10.0271 4.50038C9.90711 4.77787 9.96711 5.09286 10.1696 5.31785L11.347 6.5703C11.857 7.11027 12.532 7.41026 13.252 7.41026H13.342C13.4845 7.41026 13.6345 7.38776 13.777 7.35776L15.2619 9.0002L0.704982 20.6172C-0.112485 21.2772 -0.23248 22.4771 0.427493 23.2946C0.74998 23.6921 1.19996 23.9321 1.70994 23.9921C1.74366 23.9921 1.77737 23.994 1.81108 23.9958L1.81119 23.9958L1.81129 23.9958C1.845 23.9977 1.87872 23.9996 1.91243 23.9996C2.34742 23.9996 2.7599 23.8496 3.10488 23.5796L23.2941 7.44026C23.6915 7.11777 23.9315 6.66779 23.9915 6.15781C24.044 5.65533 23.894 5.15285 23.5791 4.76287H23.5716ZM17.9018 6.87778L16.6043 5.43784C16.6793 5.34785 16.7543 5.26535 16.8368 5.17535L16.8668 5.14535L18.2093 6.63029L17.9018 6.87028V6.87778ZM19.6792 5.46034L19.3792 5.70033L17.9693 4.14039C18.0477 4.08439 18.1261 4.03257 18.2076 3.97869L18.2918 3.9229L19.6792 5.46034ZM13.2895 5.90282C12.8545 5.89532 12.5995 5.71533 12.4345 5.53534L12.172 5.25785C13.5295 4.72537 14.5944 3.60792 14.9469 3.16543H14.9619C15.8319 2.11548 16.6793 1.523 17.3543 1.5005C17.7593 1.4705 18.0443 1.68799 18.2093 1.86799L18.4718 2.14548C16.9043 2.76045 15.7419 4.14789 15.6819 4.22289C14.8119 5.28035 13.9644 5.88032 13.2895 5.90282ZM15.2169 6.71279C15.2519 6.68779 15.2869 6.66363 15.3219 6.63947C15.3919 6.59113 15.4619 6.5428 15.5319 6.4878L16.7318 7.81525L16.4318 8.05524L15.2169 6.71279ZM22.3566 6.27031L2.15242 22.4096C2.06993 22.4771 1.96493 22.5071 1.85993 22.4996C1.75494 22.4921 1.65744 22.4396 1.58995 22.3497C1.52245 22.2672 1.49245 22.1622 1.49995 22.0572C1.50745 21.9522 1.55995 21.8547 1.64244 21.7872L21.8466 5.64783C21.9216 5.58784 22.0041 5.55784 22.1016 5.55784H22.1466C22.2516 5.56534 22.3491 5.61783 22.4166 5.70783C22.4841 5.79033 22.5141 5.89532 22.5066 6.00032C22.4991 6.10531 22.4466 6.20281 22.3641 6.27031H22.3566ZM8.62465 3.00061C9.24594 3.00061 9.7496 2.49695 9.7496 1.87566C9.7496 1.25436 9.24594 0.750702 8.62465 0.750702C8.00335 0.750702 7.49969 1.25436 7.49969 1.87566C7.49969 2.49695 8.00335 3.00061 8.62465 3.00061ZM8.99963 7.87541C8.99963 9.32285 7.82218 10.5003 6.37474 10.5003C4.9273 10.5003 3.74985 9.32285 3.74985 7.87541C3.74985 6.42797 4.9273 5.25052 6.37474 5.25052C7.82218 5.25052 8.99963 6.42797 8.99963 7.87541ZM7.49969 7.87541C7.49969 7.25294 6.99722 6.75046 6.37474 6.75046C5.75227 6.75046 5.24979 7.25294 5.24979 7.87541C5.24979 8.49789 5.75227 9.00037 6.37474 9.00037C6.99722 9.00037 7.49969 8.49789 7.49969 7.87541Z" fill="black"/>
</svg>

<svg xmlns="http://www.w3.org/2000/svg" width="25" height="24" fill="none" viewBox="0 0 25 24"><path fill="currentColor" fill-rule="evenodd" d="M23.572 4.763a1.87 1.87 0 0 0-1.283-.69 1.87 1.87 0 0 0-1.395.412l-.052.038-1.043-1.155s.068-.015.098-.015h.015a.72.72 0 0 0 .69-.45.76.76 0 0 0-.143-.818L19.282.833a2.6 2.6 0 0 0-1.98-.832c-1.14.037-2.318.787-3.495 2.227-.42.51-1.793 1.822-3.075 1.822h-.015c-.292.015-.57.173-.69.45a.76.76 0 0 0 .143.818l1.177 1.252c.51.54 1.185.84 1.905.84h.09c.143 0 .292-.022.435-.052L15.262 9 .705 20.617a1.904 1.904 0 0 0-.278 2.678c.323.397.773.637 1.283.697q.05 0 .101.004l.101.004c.435 0 .848-.15 1.193-.42l20.19-16.14a1.91 1.91 0 0 0 .285-2.677zm-5.67 2.115-1.298-1.44c.075-.09.15-.173.233-.263l.03-.03 1.342 1.485-.307.24zm1.777-1.418-.3.24-1.41-1.56q.117-.082.239-.161l.084-.056zm-6.39.443c-.434-.008-.69-.188-.854-.368l-.263-.277c1.358-.533 2.422-1.65 2.775-2.093h.015c.87-1.05 1.717-1.642 2.392-1.664.405-.03.69.187.855.367l.263.277c-1.568.615-2.73 2.003-2.79 2.078-.87 1.057-1.718 1.657-2.392 1.68m1.928.81.105-.074q.105-.07.21-.151l1.2 1.327-.3.24zm7.14-.443L2.152 22.41a.4.4 0 0 1-.292.09.37.37 0 0 1-.27-.15.4.4 0 0 1-.09-.293.4.4 0 0 1 .142-.27l20.205-16.14a.4.4 0 0 1 .255-.09h.045c.105.008.202.06.27.15a.4.4 0 0 1 .09.293.4.4 0 0 1-.143.27zM8.625 3a1.125 1.125 0 1 0 0-2.25 1.125 1.125 0 0 0 0 2.25M9 7.876A2.63 2.63 0 0 1 6.375 10.5 2.63 2.63 0 0 1 3.75 7.875a2.63 2.63 0 0 1 2.625-2.624A2.63 2.63 0 0 1 9 7.875m-1.5 0a1.124 1.124 0 1 0-2.25 0C5.25 8.498 5.752 9 6.375 9 6.997 9 7.5 8.498 7.5 7.875" clip-rule="evenodd"/></svg>
